!!!OTL: JETZT REISEN WIR BRUEDER WOL ALLE ZUGLEICH
!!!ARE: Europa, Mitteleuropa, Deutschland
!!!SCT: E1595
!!!YEM: Copyright 1995, estate of Helmut Schaffrath.
**kern
*ICvox
*Ivox
*M3/8
*k[]
*C:
{8G
=1
8G
8c
8c
=2
4c
8e
=3
8e
8d
8d
=4
4e}
{16d
16e
=5
4f
8e
=6
4d
8c
=7
8e
8d
8r
=8
4r}
{8G
=9
8G
8c
8c
=10
4c
8e
=11
8e
8d
8d
=12
4e}
{16d
16e
=13
4f
8e
=14
4d
8c
=15
8e
8d
8r
=16
4r}
{8e
=17
4f
8e
=18
4d
8e
=19
8f
8f
8e
=20
4d}
{8e
=21
4c
8B
=22
4c
8e
=23
4e
8d
=24
4e}
{8g
=25
8f
8e
8d
=26
4e
8c
=27
8d
8c
8r
=28
4r}
==
!!!AGN: Staende -, Handwerker -, Gesellen - Lied; Wanderschaft
!!!ONB: ESAC (Essen Associative Code) Database: ERK3
!!!AMT: simple triple
!!!AIN: vox
!!!EED: Helmut Schaffrath
!!!EEV: 1.0
*-
